app/img/svg/teacher-1/1.svg

<svg xmlns="http://www.w3.org/2000/svg" viewBox="0 0 512 512"><path d="M481.1 188c-3.5-2.1-7.7-2.2-11.3-.3l-73.9 39.8v-34.1c0-6.3-5.1-11.4-11.4-11.4h-18.6c23.2-18.8 38-47.5 38-79.6C403.9 46 358 0 301.5 0c-48.2 0-88.8 33.5-99.6 78.4-14.2-17.1-35.6-28-59.5-28-42.6 0-77.3 34.7-77.3 77.3 0 21.2 8.6 40.4 22.5 54.4H77.1c-6.3 0-11.4 5.1-11.4 11.4v51.9H36.8c-6.3 0-11.4 5.1-11.4 11.4v44.9c0 6.3 5.1 11.4 11.4 11.4h28.9V365c0 6.3 5.1 11.4 11.4 11.4h134.8L150 495.2c-2.9 5.6-.7 12.5 4.9 15.4 1.7.9 3.5 1.3 5.3 1.3 4.1 0 8.1-2.2 10.1-6.1l60.5-116.1 60.5 116.1c2 3.9 6 6.1 10.1 6.1 1.8 0 3.6-.4 5.3-1.3 5.6-2.9 7.8-9.8 4.9-15.4l-61.9-118.8h134.8c6.3 0 11.4-5.1 11.4-11.4v-34.1l73.9 39.8c1.7.9 3.6 1.4 5.4 1.4 2 0 4.1-.5 5.9-1.6 3.5-2.1 5.6-5.8 5.6-9.8V197.8c0-4-2.2-7.7-5.6-9.8zM65.7 290.3H48.2v-22.1h17.5v22.1zM301.5 22.9c43.9 0 79.6 35.7 79.6 79.6 0 43.9-35.7 79.6-79.6 79.6-43.9 0-79.6-35.7-79.6-79.6 0-43.9 35.7-79.6 79.6-79.6zm-87.3 133.2c6.1 9.9 13.8 18.7 22.8 26h-39.9c7.4-7.4 13.2-16.2 17.1-26zm-71.8-82.9c30 0 54.4 24.4 54.4 54.4S172.4 182 142.4 182 88 157.6 88 127.6c0-29.9 24.4-54.4 54.4-54.4zm230.7 173.5v106.9H88.6V204.9h284.5v41.8zm90.7 94.8L395.9 305v-51.5l67.9-36.5v124.5z"/><path d="M142.4 92.9c-19.1 0-34.7 15.6-34.7 34.7s15.6 34.7 34.7 34.7 34.7-15.6 34.7-34.7-15.6-34.7-34.7-34.7zm0 48.9c-7.8 0-14.1-6.3-14.1-14.1s6.3-14.1 14.1-14.1 14.1 6.3 14.1 14.1c0 7.7-6.3 14.1-14.1 14.1zm159.1-89.2c-27.5 0-49.9 22.4-49.9 49.9s22.4 49.9 49.9 49.9 49.9-22.4 49.9-49.9c-.1-27.5-22.4-49.9-49.9-49.9zm0 76.9c-14.9 0-27-12.1-27-27s12.1-27 27-27 27 12.1 27 27-12.1 27-27 27zm-36.9 108.6H140.3c-6 0-10.9 4.9-10.9 10.9v60.5c0 6 4.9 10.9 10.9 10.9h124.3c6 0 10.9-4.9 10.9-10.9V249c0-6-4.9-10.9-10.9-10.9zm-10.9 60.6H151.2v-38.8h102.5v38.8z"/><circle cx="324.5" cy="260.4" r="11.4"/><circle cx="324.5" cy="298.1" r="11.4"/></svg>

<svg xmlns="http://www.w3.org/2000/svg" viewBox="0 0 512 512"><path d="M481.1 188c-3.5-2.1-7.7-2.2-11.3-0.3l-73.9 39.8v-34.1c0-6.3-5.1-11.4-11.4-11.4h-18.6c23.2-18.8 38-47.5 38-79.6C403.9 46 358 0 301.5 0c-48.2 0-88.8 33.5-99.6 78.4 -14.2-17.1-35.6-28-59.5-28 -42.6 0-77.3 34.7-77.3 77.3 0 21.2 8.6 40.4 22.5 54.4H77.1c-6.3 0-11.4 5.1-11.4 11.4v51.9H36.8c-6.3 0-11.4 5.1-11.4 11.4v44.9c0 6.3 5.1 11.4 11.4 11.4h28.9v51.9c0 6.3 5.1 11.4 11.4 11.4h134.8l-61.9 118.8c-2.9 5.6-0.7 12.5 4.9 15.4 1.7 0.9 3.5 1.3 5.3 1.3 4.1 0 8.1-2.2 10.1-6.1l60.5-116.1 60.5 116.1c2 3.9 6 6.1 10.1 6.1 1.8 0 3.6-0.4 5.3-1.3 5.6-2.9 7.8-9.8 4.9-15.4l-61.9-118.8h134.8c6.3 0 11.4-5.1 11.4-11.4v-34.1l73.9 39.8c1.7 0.9 3.6 1.4 5.4 1.4 2 0 4.1-0.5 5.9-1.6 3.5-2.1 5.6-5.8 5.6-9.8V197.8C486.7 193.8 484.5 190.1 481.1 188zM65.7 290.3H48.2V268.2h17.5V290.3zM301.5 22.9c43.9 0 79.6 35.7 79.6 79.6 0 43.9-35.7 79.6-79.6 79.6 -43.9 0-79.6-35.7-79.6-79.6C221.9 58.6 257.6 22.9 301.5 22.9zM214.2 156.1c6.1 9.9 13.8 18.7 22.8 26h-39.9C204.5 174.7 210.3 165.9 214.2 156.1zM142.4 73.2c30 0 54.4 24.4 54.4 54.4 0 30-24.4 54.4-54.4 54.4 -30 0-54.4-24.4-54.4-54.4C88 97.7 112.4 73.2 142.4 73.2zM373.1 246.7v65.1 41.8H231c0 0 0 0-0.1 0h-0.3c0 0 0 0 0 0H88.6v-51.9 -44.9 -51.9H373.1V246.7zM463.8 341.5l-67.9-36.5v-51.5l67.9-36.5V341.5z"/><path d="M142.4 92.9c-19.1 0-34.7 15.6-34.7 34.7 0 19.1 15.6 34.7 34.7 34.7 19.1 0 34.7-15.6 34.7-34.7C177.1 108.5 161.5 92.9 142.4 92.9zM142.4 141.8c-7.8 0-14.1-6.3-14.1-14.1 0-7.8 6.3-14.1 14.1-14.1 7.8 0 14.1 6.3 14.1 14.1C156.5 135.4 150.2 141.8 142.4 141.8z"/><path d="M301.5 52.6c-27.5 0-49.9 22.4-49.9 49.9 0 27.5 22.4 49.9 49.9 49.9 27.5 0 49.9-22.4 49.9-49.9C351.3 75 329 52.6 301.5 52.6zM301.5 129.5c-14.9 0-27-12.1-27-27 0-14.9 12.1-27 27-27s27 12.1 27 27S316.4 129.5 301.5 129.5z"/><path d="M264.6 238.1h-124.3c-6 0-10.9 4.9-10.9 10.9v60.5c0 6 4.9 10.9 10.9 10.9h124.3c6 0 10.9-4.9 10.9-10.9v-60.5C275.5 243 270.6 238.1 264.6 238.1zM253.7 298.7H151.2v-38.8h102.5V298.7z"/><circle cx="324.5" cy="260.4" r="11.4"/><circle cx="324.5" cy="298.1" r="11.4"/></svg>
